!!!!SEGMENT: pl-kozmzk--mzk-m-159--001-020_walczynski-franciszek--praeludia-organi-op-5-20-lento.krn
!!!cenid: 18xx:2763
!!!COM: Walczyński, Franciszek
!!!COM-rismID: pe30021989
!!!CDT: ~1852-1937
!!!CNT: Polish
!!!GTL: Praeludia organi op. 5
!!!OTL: 20. Lento
!!!OMV: 020
!!!PDT: 1894
!!!AGN: Secular; Prelude
!!!YEC: Copyright 2022 Narodowy Instytut Fryderyka Chopina (https://polishscores.org)
!!!YEM: License CC-BY-4.0 (https://creativecommons.org/licenses/by/4.0)
!!!SMS-siglum: PL-KOZmzk
!!!SMS-shelfmark: mzk/m/159
!!!SMS-shelfwork: 001-020 G
!!!SMS-variant:
!!!SMS-altvar:
!!!NIFC-rismSourceID: 1001084394
!!!NIFC-rismChildID: 1001116722
!!!NIFC-islandoraID: pl-kozmzk:2265
!!!URL-pdf-islandora: https://repozytorium.nifc.pl/islandora/object/pl-kozmzk%3A2265/datastream/PDF/view
!!!URL-scan: https://polish.musicsources.pl/pl/lokalizacje/galeria/druki-muzyczne/7406 @EN{Scan on Polish Music Sources Website} @PL{Skany w portalu Dziedzictwo Muzyki Polskiej w otwartym dostępie}
!!!IIIF:
!!!ONB-nifc: UWAGA: numeracja plików zgodna z numeracją źrodłową
!!!OMD: 20. Lento.
!!!AIN: 1 empty 1 organ
!!!key:
**kern	**kern	**dynam
*part2	*part1	*
*staff2	*staff1	*
*Iempty	*Iorgan	*
*	*I"[Organi]	*
*clefF4	*clefG2	*
*k[f#c#]	*k[f#c#]	*
*b:	*b:	*
*M4/4	*M4/4	*
*met(c)	*met(c)	*
=1	=1	=1
*^	*	*
!LO:TX:b:i:t=Ped.	!	!	!
2F#/ 2D/	[1BB\	(>2B/	f
4G/ 4E/	.	4c#/	.
4A/ 4F#/	.	4d#X/	.
=2	=2	=2	=2
2B/ 2G/	1BB\]	2e/	.
2B/ 2F#/	.	2dn/)	.
=3	=3	=3	=3
*	*	*^	*
(2G/	(2EE\	(2c#/	2B\	p
2G#X/	2EE#X\	4.d^/	2B\	.
.	.	8c#/	.	.
=4	=4	=4	=4	=4
1F#/)	1FF#\;)	1c#/;)	1A#X\	.
*v	*v	*	*	*
*	*v	*v	*
=5||	=5||	=5||
!!!OMD: Allegro
1r	4b\	p
.	4dd\	.
.	4cc#\	.
.	4f#/	.
=6	=6	=6
!	!	!LO:DY:b=2
4B\	4b\	p
4d\	(8a/L	.
.	8g/J)	.
4c#\	4f#'/	.
4F#\	4e'/	.
=7	=7	=7
4B\	4d/	.
(8A\L	4c#/	.
8G\J)	.	.
4F#'\	4d/	.
4E'\	4A#X/	.
=8	=8	=8
4D\	4B/	<
4AA#X/	4c#/	.
4BB/	4d/	.
4GG#X/	4e#X/	[[
=9	=9	=9
(>4FF#/	(2f#/	f
4F#\	.	.
4GG#X/	4e#X/	.
4AA#X/)	4en/)	.
=10	=10	=10
4BB/	4d/	.
4C#/	4a#X/	.
4D\	4b\	.
4D#X\	4an/	.
!!LO:LB:g=original
=11	=11	=11
(4E\	(2g/	.
4B\	.	.
4F#\	4f#/	.
4G#X\)	4e#X/)	.
=12	=12	=12
2A#X\	(4en/	.
.	4g/)	.
(4F#\	4f#'/	.
8G#X\L	4e'/	.
8A#\J)	.	.
=13	=13	=13
4B\	4d/	.
4An\	4d#X/	>
4Gn\	4e/	.
4F#\	4dn/	.
=14	=14	=14
(4E\	2c#X/	.
4G\)	.	.
4F#'\	2A#X/	]
4E'\	.	.
=15	=15	=15
2D#X\	(4B/	p
.	4An/)	.
4E\	4G'/	.
4Dn\	4G#X'/	.
=16	=16	=16
2C#/	(4A/	.
.	4Gn/)	.
4D\	4F#'/	<
4C#/	4A#X'/	.
=17	=17	=17
4BB/	4B/	[
!	!LO:TX:a:i:t=rit.	!
4G\	4e/	>
4F#\	4d/	.
4FF#/	4c#/	]]
=18	=18	=18
1BB/;<	1B/;	.
=19	=19	=19
!!!OMD: Lento.
*^	*^	*
!	!LO:TX:b:i:t=Ped.	!	!	!
[1B/	2EE\	(1g/	([1e\	p >
.	2GG\	.	.	.
=20	=20	=20	=20	=20
1B/]	1BB\;	1f#/;)	4e\]	.
.	.	.	8d#X\L	.
.	.	.	8c#\J	.
.	.	.	2d#\)	]
*v	*v	*	*	*
*	*v	*v	*
==	==	==
*-	*-	*-
!!!system-decoration: {(s1,s2)}
!!!EED: Andrzej Borzym
!!!EEV: 2021-08-08
!!!RDF**kern: > = above
!!!RDF**kern: < = below
!!!ENC: Katarzyna Serwa
!!!END: 2021-07-26
